X:1
T:Title
%%score 1 { 2 | 3 }
L:1/8
Q:1/4=90
M:3/4
K:F
V:1 treble nm="Grand Piano, Soprano"
V:2 bass nm="Choir Pad, The Missionary Band, 1914"
V:3 bass 
V:1
 CF G A3 | AA G F3 | FE F G3 | BA _A =A3 | CF G A3 | Ac c B3 | BA _A=A FA- | A G2 F3- | %8
w: By~G.~W.~Wall~&~Frank~M.~Graham, * * *||||||||
[M:4/4] F2 [FA][Fc]- [Fc]/[Fc]/[Fc]- [Fc]/[FB]/[FA]- | %9
w: |
 [FA]2 z [CF]/[CF]/- [CF]/[CF]/[DF]/[DF]/- [DF]/[EG]/[FA]- | %10
w: |
 [FA]2 z [EG] [EG][EG] [FA][GB]/[GB]/- | [GB][GB]- [GB]/[Gc]/[Bd]- [Bd] [Ac]2 [FA]- | %12
w: ||
 [FA]2 [FA][Fc]- [Fc]/[Fc]/[Fc]- [Fc]/[FB]/[FA]- | %13
w: |
 [FA]2 z [CF]/[CF]/- [CF]/[CF]/[DF]/[DF]/- [DF]/[EG]/[FA]- | [FA]2 z [EG] [EG][EG][FA][GB] | %15
w: ||
 [GB][GB][Ec][FA]- [FA] [EG]2 F- | F6 z2 |] %17
w: ||
V:2
 A,A, B, C3 | CC B, A,3 | A,_A, =A, B,3 | DC =B, C3 | A,A, B, C3 | C_E E D3 | DC =B,C A,C- | %7
 C[K:bass] B,2 A,3- |[M:4/4] A,2 CA,- A,/A,/A,- A,/[K:treble]D/C- | %9
 C/B,/C- C/[K:bass]B,/A,/A,/- A,/A,/A,/[K:treble]C/- C/C/C- | C2 z C CC CC/C/- | %11
 CC- C/E/F- F F2 C- | C2 C[K:bass]A,- A,/A,/A,- A,/[K:treble]D/C- | %13
 C/B,/C- C/[K:bass]B,/A,/A,/- A,/A,/A,/A,/- A,/[K:treble]C/C- | C2 z C CCCC | %15
 CCC[K:bass]C- C B,2 A,- | A,6 z2 |] %17
V:3
 z6 | z6 | z6 | z6 | z6 | z6 | z6 | z6 |[M:4/4] z2 F,F,- F,/F,/F,- F,/F,/F,- | %9
 F,/G,/A,- A,/G,/F,/F,/- F,/F,/F,/D,/- D,/C,/F,- | F,2 z C, C,C, C,C,/C,/- | %11
 C,C,- C,/C,/F,- F, F,2 F,- | F,2 F,F,- F,/F,/F,- F,/D,/F,- | %13
 F,/G,/A,- A,/G,/F,/F,/- F,/F,/D,/D,/- D,/C,/F,- | F,2 z C, C,C,C,C, | C,C,C,C,- C, C,2 F,- | %16
 F,6 z2 |] %17

